X:8138
T:Winster Gallop
O:england
R:intro
M:2/4
L:1/16
K:G
G2BB G2B2|G2B2 d4|A3c B2 A2|G4G4|:G2BB G2B2|
G2B2 d4|A2cc B2A2|G2B2 d4|c2e2 f2e2|
d2B2 d4|A3c B2A2|G4G4:|
|:g2f2 e2d2|g2f2 e2d2|g2ff e2d2|c2B2 A4|
f2e2 d4|f2e2 d4|d4A3c|B2G2 G4:|
